X:1
T: The Wag o' the Kilt
C:McKenzie Murdoch
R:Strathspey
Q: 128
K:A
M:4/4
L:1/16
|:A4 cA3 eA3 cA3|F3B dcBA GE3 E2((3EFG)|A4 cA3 eA3 cA3|F3B Ge3 ce3 e2((3EFG)|
A4 cA3 eA3 cA3|F3B dcBA GE3 E2FG|A4 cA3 eA3 cA3|F3B Ge3 cA3 A2((3efg)|
a3e f3e fedc e2((3efg)|a3e f3e fedc B2((3efg)|a3e f3e fedc e3d|((3e2B2A2) ((3e2A2G2) A4 A2((3efg)|
a3e f3e fedc e2((3efg)|a3e f3e fedc B2((3efg)|a3e f3e fedc e3d|((3e2B2A2) ((3e2A2G2) EA3 A4:|
